X:105
T:Lass of Ballintray (reel), The  
T:Lady Mary Ramsey
B:CRE1.091 (Cailin Bhaile an tSratha)
F:file ID: cre.1/105lass_b
S:Pat Brophy
M:C
L:1/8
Q:180
R:reel
K:G
G3B dGBd|edBG AGED|G3B dGBd|gbaf gedB|
G3B dGBd|edBG AGED|G3B dGBd|gbaf efg2||
dgg2 bgg2|agbg age2|dgg2 bgg2|gbag efg2|
dgg2 bgg2|agbg age2|bgaf gfed|egfa (3gfe dB||G8||

%%%

